public/avatar/body/16.svg

<svg xmlns:xlink="http://www.w3.org/1999/xlink" height="82" width="84.85" xmlns="http://www.w3.org/2000/svg"><g transform="translate(37.4 42.25)"><use height="38" transform="translate(-11.95 -17.45)" width="32.05" xlink:href="#a"/><use height="35.7" transform="translate(-11.95 -16.95)" width="31.25" xlink:href="#b"/><use height="38.95" transform="translate(-12.45 -17.95)" width="33.05" xlink:href="#c"/></g><defs><path d="M27.35 7.4q2.15 4.15 3.55 8.75 1.45 4.7 1.15 9.5-.35 4.95-4.2 8.1-3.8 3.2-8.75 4.05l-2.6.2q-3.6 0-7.05-1.15-4.65-1.6-7.1-5.5Q-.2 27.4.05 23q.2-4.4 2-9.3Q3.85 8.75 7 5.05 10.1 1.3 14.7.1l1.8-.1q1.9.05 3.7.8 4.75 2.05 7.15 6.6" fill="#fc0" fill-rule="evenodd" transform="translate(-.05)" id="d"/><path d="m3.05-16.1.4.15q.7.25.85 1.5l-.35.65-.8.4q-2.1-.35-1.25-2.4l.25-.5.9.2M14.8-1.6q-1.6.1-1.8-1.3-.4-2.25 1.8-2.45 1.65.1 1.25 2.4Q15.8-1.7 14.8-1.6M7.3-16.9l.7.25q1.65.7 3.05 1.75 1.95 1.7 3.45 3.95Q14.1-9 12.6-7.8q-1.5 1.25-3.55 1-1.95-.25-3.2-1.6-1.3-1.4-1.1-3.35.15-1.95.65-3.8.45-1.7 1.9-1.35M-10.35-1.45q2.25.1 2.2 2.35 0 2-1.35 3.45-1.1 1.25-2.65 1.2v-.8q.05-3.15.8-6.15l1-.05M.8 12.45l.4-.05 1.2-.1q2.4-.15 2.75 2.1.3 2.1-1.65 2.8l-1.5.15q-1.95-.4-2.1-2.1-.15-1.6.9-2.8m8.95 1.85q-1.65 1.05-2.5-.5-1.15-2.15.9-2.9 1.5.05 2.1 1.9.3 1-.5 1.5M8.25 2.35q1.8 1.05 1.5 3.35-.2 1.5-.9 2.85-.3.65-.95.7-1.8.1-3.5-.6-1.9-.85-1.25-2.9.15-1.7 1.8-3.15 1.45-1.3 3.3-.25M19.1 11.7l-.15.35q-1.05 2.45-3.3 4.25l-2 1.5q-.7-.75-.9-1.9-.35-1.9.3-3.65.65-1.95 2.75-2.25 2.1-.3 3.3 1.7m-22.45 7.05q-2.25-1.1-4-2.85.8-1.55 2.7-.55.95.45 1.2 1.5.3 1.05.1 1.9M-6 6.85l-.85-.05Q-8.9 5.75-7.2 3.75q1.4-.4 2 .85.9 1.8-.8 2.25M-4.95-7.2q.85.1 1.35.55 1.6 1.25.95 3.3l-.5.8q-1.65 1.35-3.5.3-1.9-1.15-1.3-3.25.6-2 3-1.7" fill="#c60" fill-rule="evenodd" transform="translate(12.15 16.95)" id="b"/><path d="M27.35 7.4Q24.95 2.85 20.2.8 17.55-.3 14.7.1 10.1 1.3 7 5.05q-3.15 3.7-4.95 8.65-1.8 4.9-2 9.3-.25 4.4 2.3 8.35 2.45 3.9 7.1 5.5 4.65 1.55 9.65.95 4.95-.85 8.75-4.05 3.85-3.15 4.2-8.1.3-4.8-1.15-9.5-1.4-4.6-3.55-8.75Z" fill="none" stroke="#000" stroke-linecap="round" stroke-linejoin="round" transform="translate(.45 .5)" id="e"/><use height="38" width="32.05" xlink:href="#d" id="a"/><use height="38.95" width="33.05" xlink:href="#e" id="c"/></defs></svg>

<?xml version="1.0" encoding="UTF-8" standalone="no"?>
<svg xmlns:xlink="http://www.w3.org/1999/xlink" height="82.0px" width="84.85px" xmlns="http://www.w3.org/2000/svg">
  <g transform="matrix(1.0, 0.0, 0.0, 1.0, 37.4, 42.25)">
    <use height="38.0" transform="matrix(1.0, 0.0, 0.0, 1.0, -11.95, -17.45)" width="32.05" xlink:href="#sprite0"/>
    <use height="35.7" transform="matrix(1.0, 0.0, 0.0, 1.0, -11.95, -16.95)" width="31.25" xlink:href="#shape1"/>
    <use height="38.95" transform="matrix(1.0, 0.0, 0.0, 1.0, -12.45, -17.95)" width="33.05" xlink:href="#sprite1"/>
  </g>
  <defs>
    <g id="sprite0" transform="matrix(1.0, 0.0, 0.0, 1.0, -0.05, 0.0)">
      <use height="38.0" transform="matrix(1.0, 0.0, 0.0, 1.0, 0.05, 0.0)" width="32.05" xlink:href="#shape0"/>
    </g>
    <g id="shape0" transform="matrix(1.0, 0.0, 0.0, 1.0, -0.05, 0.0)">
      <path d="M27.35 7.4 Q29.5 11.55 30.9 16.15 32.35 20.85 32.05 25.65 31.7 30.6 27.85 33.75 24.05 36.95 19.1 37.8 L16.5 38.0 Q12.9 38.0 9.45 36.85 4.8 35.25 2.35 31.35 -0.2 27.4 0.05 23.0 0.25 18.6 2.05 13.7 3.85 8.75 7.0 5.05 10.1 1.3 14.7 0.1 L16.5 0.0 Q18.4 0.05 20.2 0.8 24.95 2.85 27.35 7.4" fill="#ffcc00" fill-rule="evenodd" stroke="none"/>
    </g>
    <g id="shape1" transform="matrix(1.0, 0.0, 0.0, 1.0, 12.15, 16.95)">
      <path d="M3.05 -16.1 L3.45 -15.95 Q4.15 -15.7 4.3 -14.45 L3.95 -13.8 3.15 -13.4 Q1.05 -13.75 1.9 -15.8 L2.15 -16.3 3.05 -16.1 M14.8 -1.6 Q13.2 -1.5 13.0 -2.9 12.6 -5.15 14.8 -5.35 16.45 -5.25 16.05 -2.95 15.8 -1.7 14.8 -1.6 M7.3 -16.9 L8.0 -16.65 Q9.65 -15.95 11.05 -14.9 13.0 -13.2 14.5 -10.95 14.1 -9.0 12.6 -7.8 11.1 -6.55 9.05 -6.8 7.1 -7.05 5.85 -8.4 4.55 -9.8 4.75 -11.75 4.9 -13.7 5.4 -15.55 5.85 -17.25 7.3 -16.9 M-10.35 -1.45 Q-8.1 -1.35 -8.15 0.9 -8.15 2.9 -9.5 4.35 -10.6 5.6 -12.15 5.55 L-12.15 4.75 Q-12.1 1.6 -11.35 -1.4 L-10.35 -1.45 M0.8 12.45 L1.2 12.4 2.4 12.3 Q4.8 12.15 5.15 14.4 5.45 16.5 3.5 17.2 L2.0 17.35 Q0.05 16.95 -0.1 15.25 -0.25 13.65 0.8 12.45 M9.75 14.3 Q8.1 15.35 7.25 13.8 6.1 11.65 8.15 10.9 9.65 10.95 10.25 12.8 10.55 13.8 9.75 14.3 M8.25 2.35 Q10.05 3.4 9.75 5.7 9.55 7.2 8.85 8.55 8.55 9.2 7.9 9.25 6.1 9.35 4.4 8.65 2.5 7.8 3.15 5.75 3.3 4.05 4.95 2.6 6.4 1.3 8.25 2.35 M19.1 11.7 L18.95 12.05 Q17.9 14.5 15.65 16.3 L13.65 17.8 Q12.95 17.05 12.75 15.9 12.4 14.0 13.05 12.25 13.7 10.3 15.8 10.0 17.9 9.7 19.1 11.7 M-3.35 18.75 Q-5.6 17.65 -7.35 15.9 -6.55 14.35 -4.65 15.35 -3.7 15.8 -3.45 16.85 -3.15 17.9 -3.35 18.75 M-6.0 6.85 L-6.85 6.8 Q-8.9 5.75 -7.2 3.75 -5.8 3.35 -5.2 4.6 -4.3 6.4 -6.0 6.85 M-4.95 -7.2 Q-4.1 -7.1 -3.6 -6.65 -2.0 -5.4 -2.65 -3.35 L-3.15 -2.55 Q-4.8 -1.2 -6.65 -2.25 -8.55 -3.4 -7.95 -5.5 -7.35 -7.5 -4.95 -7.2" fill="#cc6600" fill-rule="evenodd" stroke="none"/>
    </g>
    <g id="sprite1" transform="matrix(1.0, 0.0, 0.0, 1.0, 0.45, 0.5)">
      <use height="38.95" transform="matrix(1.0, 0.0, 0.0, 1.0, -0.45, -0.5)" width="33.05" xlink:href="#shape2"/>
    </g>
    <g id="shape2" transform="matrix(1.0, 0.0, 0.0, 1.0, 0.45, 0.5)">
      <path d="M27.35 7.4 Q24.95 2.85 20.2 0.8 17.55 -0.3 14.7 0.1 10.1 1.3 7.0 5.05 3.85 8.75 2.05 13.7 0.25 18.6 0.05 23.0 -0.2 27.4 2.35 31.35 4.8 35.25 9.45 36.85 14.1 38.4 19.1 37.8 24.05 36.95 27.85 33.75 31.7 30.6 32.05 25.65 32.35 20.85 30.9 16.15 29.5 11.55 27.35 7.4 Z" fill="none" stroke="#000000" stroke-linecap="round" stroke-linejoin="round" stroke-width="1.0"/>
    </g>
  </defs>
</svg>
